icon-themes/breeze_svg/cmd/sc_firstrecord.svg

<svg viewBox="0 0 16 16" xmlns="http://www.w3.org/2000/svg">/&gt;<path d="m4 2v12h1v-12zm8.361328 0-3.6855468 4.125-1.6757812 1.875 1.6757812 1.875 3.6855468 4.125.638672-.75-3.6855469-4.09375-1.0351562-1.15625 1.0351562-1.15625 3.6855469-4.125z" fill="#4d4d4d"/></svg>

<svg xmlns="http://www.w3.org/2000/svg" viewBox="0 0 16 16">
     />
 <path 
     style="fill:#4d4d4d" 
     d="M 4 2 L 4 14 L 5 14 L 5 2 L 4 2 z M 12.361328 2 L 8.6757812 6.125 L 7 8 L 8.6757812 9.875 L 12.361328 14 L 13 13.25 L 9.3144531 9.15625 L 8.2792969 8 L 9.3144531 6.84375 L 13 2.71875 L 12.361328 2 z "
     />
 </svg>
